actions/16/kt-magnet.svg

<svg xmlns="http://www.w3.org/2000/svg" style="fill-rule:evenodd;clip-rule:evenodd;stroke-linejoin:round;stroke-miterlimit:2" width="100%" height="100%" viewBox="0 0 16 16" xml:space="preserve">
 <defs>
  <style id="current-color-scheme" type="text/css">
   .ColorScheme-Text { color:#dfdfdf; } .ColorScheme-Highlight { color:#4285f4; } .ColorScheme-NeutralText { color:#ff9800; } .ColorScheme-PositiveText { color:#4caf50; } .ColorScheme-NegativeText { color:#f44336; }
  </style>
 </defs>
 <path style="fill:currentColor;" class="ColorScheme-Text" d="M3,8.993l0,-1.993c0,-5 5,-5 5,-5c0,0 5,0 5,5l0,1.993l-2,0l0,-1.993c0,-3 -3,-3 -3,-3c0,0 -3,0 -3,3l0,1.993l-2,0Z"/>
 <path style="fill:currentColor;fill-opacity:0.3" class="ColorScheme-Text" d="M5,8.993l0,5.007l-2,0l0,-5.007l2,0Zm8,0l0,5.007l-2,0l0,-5.007l2,0Z"/>
</svg>

<svg xmlns="http://www.w3.org/2000/svg" style="fill-rule:evenodd;clip-rule:evenodd;stroke-linejoin:round;stroke-miterlimit:2" viewBox="0 0 16 16" xml:space="preserve">
    <defs>
        <style id="current-color-scheme" type="text/css">
            .ColorScheme-Text{color:#dfdfdf}
        </style>
    </defs>
    <path style="fill:currentColor" class="ColorScheme-Text" d="M3 8.993V7c0-5 5-5 5-5s5 0 5 5v1.993h-2V7c0-3-3-3-3-3S5 4 5 7v1.993H3Z"/>
    <path style="fill:currentColor;fill-opacity:.3" class="ColorScheme-Text" d="M5 8.993V14H3V8.993h2Zm8 0V14h-2V8.993h2Z"/>
</svg>
